!!!OTL: The Lone Start Trail
!!!ARE: United States of America; Texas
!!!ONB: Traditional Cowboy Song
!!!AMD: Pentatonic
**kern
*clefG2
*k[f#]
*M2/4
*MM112
{4d/
=1
8g/L
8g/J
8g/L
8g/J
=2
4b/
4d/
=3
4g/
8g/L
8g/J
=4
4b/}
{8g/L
8g/J
=5
8dd\L
8dd\J
8dd\L
8dd\J
=6
8dd/L
8d/J
8d/L
8d/J
=7
4g/
4g/
=8
4b/}
{8g/L
8g/J
=9
4dd\
4dd\
=10
8dd/L
8d/J
8d/L
8d/J
=11
4g/
8g/L
8g/J
=12
4b/}
{8g/L
8b/J
=13
4dd\
4ee\
=14
8dd\L
8b\J
8b\L
8b\J
=15
(8b\
[4.g/)
=16
4g/]}
==
*-
